svgs/duotone/dice-d6.svg

<svg xmlns="http://www.w3.org/2000/svg" viewBox="0 0 448 512"><!--! Font Awesome Pro 6.0.0-alpha3 by @fontawesome - https://fontawesome.com License - https://fontawesome.com/license (Commercial License) --><defs><style>.fa-secondary{opacity:.4}</style></defs><path class="fa-primary" d="M7.994 153.5c1.326 0 2.687 .3508 3.975 1.119L208 271.5v223.8c0 9.741-7.656 16.71-16.01 16.71c-2.688 0-5.449-.7212-8.05-2.303l-152.2-92.47C12.13 405.3 0 383.3 0 359.5v-197.7C0 156.1 3.817 153.5 7.994 153.5zM440 153.5C444.2 153.5 448 156.1 448 161.8v197.7c0 23.75-12.12 45.75-31.78 57.69l-152.2 92.5C261.5 511.3 258.7 512 256 512C247.7 512 240 505 240 495.3V271.5l196-116.9C437.3 153.8 438.7 153.5 440 153.5z"/><path class="fa-secondary" d="M426.2 117.2c0 2.825-1.352 5.647-4.051 7.248L224 242.6L25.88 124.4C23.19 122.8 21.85 119.1 21.85 117.2c0-2.8 1.32-5.603 3.965-7.221l165.1-100.9C201.7 3.023 212.9 0 224 0s22.27 3.023 32.22 9.07l165.1 100.9C424.8 111.6 426.2 114.4 426.2 117.2z"/></svg>

<svg xmlns="http://www.w3.org/2000/svg" viewBox="0 0 448 512"><!-- Font Awesome Pro 6.0.0-alpha2 by @fontawesome - https://fontawesome.com License - https://fontawesome.com/license (Commercial License) --><defs><style>.fa-secondary{opacity:.4}</style></defs><path d="M426.328 117.163C426.328 119.988 424.977 122.81 422.277 124.411L224.152 242.565L26.027 124.411C23.344 122.81 22 119.988 22 117.163C22 114.363 23.32 111.561 25.965 109.943L191.934 9.07C201.887 3.023 213.02 0 224.152 0S246.418 3.023 256.371 9.07L422.34 109.943C425 111.561 426.328 114.363 426.328 117.163Z " class="fa-secondary"></path><path d="M7.994 153.479C9.32 153.479 10.681 153.83 11.969 154.598L208 271.47V495.277C208 505.018 200.344 511.986 191.988 511.986C189.3 511.986 186.539 511.265 183.938 509.683L31.781 417.217C12.125 405.279 0 383.311 0 359.53V161.848C0 156.961 3.817 153.479 7.994 153.479ZM440.006 153.479C444.183 153.479 448 156.961 448 161.848V359.53C448 383.28 435.875 405.279 416.219 417.217L264.062 509.714C261.469 511.284 258.717 512 256.037 512C247.671 512 240 505.028 240 495.277V271.47L436.031 154.598C437.319 153.83 438.68 153.479 440.006 153.479Z " class="fa-primary"></path></svg>
